public/images/home/react-js.svg

<svg width="138" height="48" viewBox="0 0 138 48" fill="none" xmlns="http://www.w3.org/2000/svg">
<path d="M0.156006 23.9479C0.156006 27.958 4.04037 31.7014 10.1641 33.8115C8.94122 40.0175 9.94507 45.0197 13.2976 46.9687C16.7435 48.9722 21.8772 47.5854 26.7499 43.2915C31.4996 47.412 36.2999 49.0335 39.6495 47.0789C43.0923 45.0698 44.1392 39.7284 42.8826 33.3286C49.2609 31.2028 52.8288 28.0108 52.8288 23.9479C52.8288 20.0309 48.9374 16.6423 42.896 14.5458C44.2489 7.88147 43.1026 3.00071 39.6112 0.971144C36.2452 -0.985587 31.3891 0.719874 26.5696 4.94805C21.5555 0.460257 16.7474 -0.90983 13.2597 1.12537C9.89683 3.08774 8.93728 8.18095 10.1641 14.5017C4.24698 16.5814 0.156006 20.0468 0.156006 23.9479Z" fill="white"/>
<path d="M41.6166 16.6275C41.1188 16.4553 40.6166 16.2958 40.1108 16.1492C40.1947 15.8055 40.2722 15.4604 40.3435 15.1138C41.4833 9.53581 40.738 5.04218 38.1929 3.56294C35.7527 2.14423 31.7618 3.62347 27.731 7.1594C27.3338 7.50862 26.9455 7.8679 26.5663 8.23689C26.3124 7.99153 26.054 7.75093 25.7912 7.51522C21.5669 3.73408 17.3327 2.14089 14.7902 3.62451C12.3524 5.04719 11.6303 9.27182 12.6565 14.5581C12.7586 15.0816 12.8738 15.6024 13.0022 16.12C12.4031 16.2915 11.8244 16.4743 11.2709 16.6688C6.31847 18.4093 3.15558 21.1374 3.15558 23.9669C3.15558 26.8895 6.55075 29.8208 11.7093 31.5981C12.1276 31.7415 12.5494 31.8744 12.9742 31.9967C12.8362 32.5543 12.7137 33.1157 12.6068 33.6802C11.6284 38.8747 12.3925 42.9991 14.824 44.413C17.3354 45.8729 21.5504 44.3723 25.6548 40.7556C25.9792 40.4697 26.3048 40.1665 26.6309 39.8486C27.0416 40.2481 27.4633 40.6359 27.8954 41.0117C31.8711 44.4604 35.7975 45.853 38.2269 44.4354C40.736 42.9712 41.5512 38.5403 40.4925 33.1495C40.4118 32.7378 40.3176 32.3172 40.212 31.889C40.508 31.8009 40.7985 31.7099 41.0819 31.6152C46.4446 29.8242 49.9336 26.9285 49.9336 23.9669C49.9336 21.1272 46.6688 18.3808 41.6166 16.6275V16.6275Z" fill="#53C1DE"/>
<path d="M40.4534 29.7032C40.1977 29.7885 39.9352 29.871 39.6677 29.9509C39.0756 28.0616 38.2765 26.0525 37.299 23.977C38.232 21.9506 39.0001 19.9673 39.5756 18.0901C40.054 18.2299 40.5186 18.3771 40.9662 18.5325C45.295 20.0345 47.9354 22.2557 47.9354 23.967C47.9354 25.7899 45.0836 28.1565 40.4536 29.7032H40.4534ZM38.5322 33.5409C39.0003 35.9246 39.0672 38.0798 38.757 39.7646C38.4784 41.2785 37.9182 42.2877 37.2255 42.692C35.7513 43.5522 32.5985 42.434 29.1988 39.4847C28.809 39.1467 28.4163 38.7856 28.0225 38.4037C29.3406 36.9503 30.6579 35.2607 31.9435 33.3846C34.205 33.1823 36.3415 32.8516 38.279 32.4002C38.3742 32.7883 38.4591 33.1688 38.5322 33.5409V33.5409ZM19.1031 42.5434C17.6629 43.0562 16.5158 43.0708 15.8224 42.6678C14.3468 41.81 13.7336 38.498 14.5702 34.0559C14.6697 33.531 14.7836 33.0089 14.9118 32.4903C16.8278 32.9175 18.9487 33.2249 21.2156 33.4102C22.5097 35.2461 23.8651 36.9336 25.231 38.4114C24.9407 38.6945 24.6435 38.9703 24.3398 39.2387C22.5248 40.8381 20.7061 41.9726 19.1033 42.5434H19.1031ZM12.3556 29.6919C10.0747 28.906 8.19098 27.8846 6.89978 26.7702C5.73962 25.7684 5.15375 24.774 5.15375 23.967C5.15375 22.25 7.69329 20.0598 11.9288 18.5711C12.4604 18.3851 12.9973 18.2148 13.5388 18.0605C14.1242 19.9798 14.8921 21.9867 15.8187 24.016C14.8801 26.0756 14.1013 28.1144 13.5104 30.0563C13.1226 29.9444 12.7376 29.8229 12.3556 29.6919V29.6919ZM14.6176 14.1712C13.7384 9.64189 14.3222 6.22534 15.7914 5.36802C17.3565 4.45476 20.8169 5.75703 24.4642 9.02165C24.6973 9.23035 24.9314 9.44885 25.166 9.67487C23.8071 11.146 22.4641 12.8207 21.1812 14.646C18.9812 14.8516 16.8752 15.1817 14.9391 15.6239C14.8198 15.1424 14.7126 14.658 14.6176 14.171V14.1712ZM34.7954 19.1939C34.3382 18.3976 33.8639 17.6113 33.373 16.8356C34.8656 17.0255 36.2955 17.2781 37.6383 17.5871C37.2352 18.8896 36.7328 20.2516 36.1411 21.6477C35.7088 20.8208 35.2602 20.0027 34.7954 19.1939V19.1939ZM26.5669 11.1145C27.4886 12.121 28.4117 13.245 29.3197 14.4644C27.4778 14.3767 25.6329 14.3763 23.791 14.4632C24.6998 13.255 25.6308 12.1327 26.5669 11.1145V11.1145ZM18.2856 19.2077C17.8267 20.0101 17.3865 20.8232 16.9652 21.6463C16.3833 20.2549 15.8854 18.8869 15.4788 17.5659C16.8135 17.2647 18.2367 17.0187 19.7196 16.8319C19.2233 17.6124 18.7451 18.4045 18.2856 19.2077V19.2077ZM19.7623 31.2459C18.2303 31.0735 16.7855 30.8399 15.4513 30.5471C15.8643 29.2027 16.3731 27.8053 16.9675 26.3841C17.3905 27.2078 17.8327 28.0214 18.2937 28.8242C18.7641 29.643 19.2537 30.4505 19.7623 31.2459V31.2459ZM26.6222 36.9618C25.6751 35.9315 24.7304 34.792 23.8077 33.5663C24.7033 33.6018 25.6165 33.6198 26.5446 33.6198C27.4981 33.6198 28.4407 33.5983 29.3683 33.5565C28.4575 34.8045 27.5376 35.9457 26.6222 36.9618ZM36.1601 26.3117C36.7853 27.7483 37.3124 29.1382 37.731 30.4599C36.3746 30.7719 34.9103 31.0232 33.3674 31.2098C33.8618 30.4196 34.3407 29.6196 34.8035 28.8102C35.2741 27.9876 35.7264 27.1545 36.1601 26.3117V26.3117ZM33.0724 27.8038C32.3638 29.0447 31.6154 30.2621 30.8283 31.4539C29.4404 31.5539 28.0061 31.6054 26.5446 31.6054C25.089 31.6054 23.673 31.5597 22.3093 31.4706C21.5018 30.2815 20.7392 29.0621 20.0231 27.8149C19.3104 26.5743 18.6447 25.3069 18.0274 24.0154C18.6432 22.7235 19.3069 21.4554 20.0171 20.2138V20.2142C20.7272 18.9723 21.4838 17.7581 22.2853 16.5741C23.6765 16.4681 25.1029 16.4126 26.5448 16.4126C27.9931 16.4126 29.4214 16.4685 30.8121 16.5754C31.6055 17.7575 32.3573 18.9675 33.066 20.2031C33.7787 21.442 34.4513 22.7039 35.0826 23.9868C34.4578 25.2828 33.7873 26.556 33.0726 27.8038H33.0724ZM37.1948 5.30812C38.7612 6.21887 39.3704 9.89129 38.3863 14.7074C38.3217 15.0211 38.2516 15.3336 38.1759 15.6448C36.2353 15.1934 34.1278 14.8574 31.9214 14.6487C30.6359 12.8036 29.3042 11.1259 27.9672 9.67382C28.3176 9.33335 28.6762 9.0017 29.0429 8.67918C32.4965 5.64934 35.7242 4.4531 37.1948 5.30812V5.30812Z" fill="white"/>
<path d="M26.5448 19.7561C28.8518 19.7561 30.7219 21.6415 30.7219 23.967C30.7219 26.2927 28.8518 28.178 26.5448 28.178C24.2379 28.178 22.3677 26.2927 22.3677 23.967C22.3677 21.6415 24.2379 19.7561 26.5448 19.7561" fill="#53C1DE"/>
<path d="M67.522 31L65.092 27.49H64.948H62.41V31H59.494V18.4H64.948C66.064 18.4 67.03 18.586 67.846 18.958C68.674 19.33 69.31 19.858 69.754 20.542C70.198 21.226 70.42 22.036 70.42 22.972C70.42 23.908 70.192 24.718 69.736 25.402C69.292 26.074 68.656 26.59 67.828 26.95L70.654 31H67.522ZM67.468 22.972C67.468 22.264 67.24 21.724 66.784 21.352C66.328 20.968 65.662 20.776 64.786 20.776H62.41V25.168H64.786C65.662 25.168 66.328 24.976 66.784 24.592C67.24 24.208 67.468 23.668 67.468 22.972Z" fill="#53C1DE"/>
<path d="M82.0183 26.194C82.0183 26.23 82.0003 26.482 81.9643 26.95H74.6383C74.7703 27.55 75.0823 28.024 75.5743 28.372C76.0663 28.72 76.6783 28.894 77.4103 28.894C77.9143 28.894 78.3583 28.822 78.7423 28.678C79.1383 28.522 79.5043 28.282 79.8403 27.958L81.3343 29.578C80.4223 30.622 79.0903 31.144 77.3383 31.144C76.2463 31.144 75.2803 30.934 74.4403 30.514C73.6003 30.082 72.9523 29.488 72.4963 28.732C72.0403 27.976 71.8123 27.118 71.8123 26.158C71.8123 25.21 72.0343 24.358 72.4783 23.602C72.9343 22.834 73.5523 22.24 74.3323 21.82C75.1243 21.388 76.0063 21.172 76.9783 21.172C77.9263 21.172 78.7843 21.376 79.5523 21.784C80.3203 22.192 80.9203 22.78 81.3523 23.548C81.7963 24.304 82.0183 25.186 82.0183 26.194ZM76.9963 23.296C76.3603 23.296 75.8263 23.476 75.3943 23.836C74.9623 24.196 74.6983 24.688 74.6023 25.312H79.3723C79.2763 24.7 79.0123 24.214 78.5803 23.854C78.1483 23.482 77.6203 23.296 76.9963 23.296Z" fill="#53C1DE"/>
<path d="M87.5301 21.172C89.0301 21.172 90.1821 21.532 90.9861 22.252C91.7901 22.96 92.1921 24.034 92.1921 25.474V31H89.5641V29.794C89.0361 30.694 88.0521 31.144 86.6121 31.144C85.8681 31.144 85.2201 31.018 84.6681 30.766C84.1281 30.514 83.7141 30.166 83.4261 29.722C83.1381 29.278 82.9941 28.774 82.9941 28.21C82.9941 27.31 83.3301 26.602 84.0021 26.086C84.6861 25.57 85.7361 25.312 87.1521 25.312H89.3841C89.3841 24.7 89.1981 24.232 88.8261 23.908C88.4541 23.572 87.8961 23.404 87.1521 23.404C86.6361 23.404 86.1261 23.488 85.6221 23.656C85.1301 23.812 84.7101 24.028 84.3621 24.304L83.3541 22.342C83.8821 21.97 84.5121 21.682 85.2441 21.478C85.9881 21.274 86.7501 21.172 87.5301 21.172ZM87.3141 29.254C87.7941 29.254 88.2201 29.146 88.5921 28.93C88.9641 28.702 89.2281 28.372 89.3841 27.94V26.95H87.4581C86.3061 26.95 85.7301 27.328 85.7301 28.084C85.7301 28.444 85.8681 28.732 86.1441 28.948C86.4321 29.152 86.8221 29.254 87.3141 29.254Z" fill="#53C1DE"/>
<path d="M99.519 31.144C98.487 31.144 97.557 30.934 96.729 30.514C95.913 30.082 95.271 29.488 94.803 28.732C94.347 27.976 94.119 27.118 94.119 26.158C94.119 25.198 94.347 24.34 94.803 23.584C95.271 22.828 95.913 22.24 96.729 21.82C97.557 21.388 98.487 21.172 99.519 21.172C100.539 21.172 101.427 21.388 102.183 21.82C102.951 22.24 103.509 22.846 103.857 23.638L101.679 24.808C101.175 23.92 100.449 23.476 99.501 23.476C98.769 23.476 98.163 23.716 97.683 24.196C97.203 24.676 96.963 25.33 96.963 26.158C96.963 26.986 97.203 27.64 97.683 28.12C98.163 28.6 98.769 28.84 99.501 28.84C100.461 28.84 101.187 28.396 101.679 27.508L103.857 28.696C103.509 29.464 102.951 30.064 102.183 30.496C101.427 30.928 100.539 31.144 99.519 31.144Z" fill="#53C1DE"/>
<path d="M111.86 30.532C111.584 30.736 111.242 30.892 110.834 31C110.438 31.096 110.018 31.144 109.574 31.144C108.422 31.144 107.528 30.85 106.892 30.262C106.268 29.674 105.956 28.81 105.956 27.67V23.692H104.462V21.532H105.956V19.174H108.764V21.532H111.176V23.692H108.764V27.634C108.764 28.042 108.866 28.36 109.07 28.588C109.286 28.804 109.586 28.912 109.97 28.912C110.414 28.912 110.792 28.792 111.104 28.552L111.86 30.532Z" fill="#53C1DE"/>
<path d="M121.054 31.216C120.202 31.216 119.416 31.06 118.696 30.748C117.988 30.424 117.406 29.968 116.95 29.38L118.57 27.436C119.254 28.36 120.034 28.822 120.91 28.822C122.098 28.822 122.692 28.126 122.692 26.734V20.74H118.264V18.4H125.59V26.572C125.59 28.12 125.206 29.284 124.438 30.064C123.67 30.832 122.542 31.216 121.054 31.216Z" fill="#53C1DE"/>
<path d="M132.611 31.216C131.615 31.216 130.649 31.084 129.713 30.82C128.789 30.544 128.045 30.19 127.481 29.758L128.471 27.562C129.011 27.958 129.653 28.276 130.397 28.516C131.141 28.756 131.885 28.876 132.629 28.876C133.457 28.876 134.069 28.756 134.465 28.516C134.861 28.264 135.059 27.934 135.059 27.526C135.059 27.226 134.939 26.98 134.699 26.788C134.471 26.584 134.171 26.422 133.799 26.302C133.439 26.182 132.947 26.05 132.323 25.906C131.363 25.678 130.577 25.45 129.965 25.222C129.353 24.994 128.825 24.628 128.381 24.124C127.949 23.62 127.733 22.948 127.733 22.108C127.733 21.376 127.931 20.716 128.327 20.128C128.723 19.528 129.317 19.054 130.109 18.706C130.913 18.358 131.891 18.184 133.043 18.184C133.847 18.184 134.633 18.28 135.401 18.472C136.169 18.664 136.841 18.94 137.417 19.3L136.517 21.514C135.353 20.854 134.189 20.524 133.025 20.524C132.209 20.524 131.603 20.656 131.207 20.92C130.823 21.184 130.631 21.532 130.631 21.964C130.631 22.396 130.853 22.72 131.297 22.936C131.753 23.14 132.443 23.344 133.367 23.548C134.327 23.776 135.113 24.004 135.725 24.232C136.337 24.46 136.859 24.82 137.291 25.312C137.735 25.804 137.957 26.47 137.957 27.31C137.957 28.03 137.753 28.69 137.345 29.29C136.949 29.878 136.349 30.346 135.545 30.694C134.741 31.042 133.763 31.216 132.611 31.216Z" fill="#53C1DE"/>
</svg>

<svg xmlns="http://www.w3.org/2000/svg" width="138" height="48" fill="none" xmlns:v="https://vecta.io/nano"><path d="M.156 23.948c0 4.01 3.884 7.753 10.008 9.864-1.223 6.206-.219 11.208 3.133 13.157 3.446 2.004 8.58.617 13.452-3.677 4.75 4.121 9.55 5.742 12.9 3.787 3.443-2.009 4.49-7.35 3.233-13.75 6.378-2.126 9.946-5.318 9.946-9.381 0-3.917-3.891-7.306-9.933-9.402 1.353-6.664.207-11.545-3.285-13.575C36.245-.986 31.389.72 26.57 4.948 21.556.46 16.747-.91 13.26 1.125c-3.363 1.962-4.322 7.056-3.096 13.376C4.247 16.581.156 20.047.156 23.948z" fill="#fff"/><path d="M41.617 16.628l-1.506-.478.233-1.035c1.14-5.578.395-10.072-2.151-11.551-2.44-1.419-6.431.061-10.462 3.596a31.39 31.39 0 0 0-1.165 1.077 28.48 28.48 0 0 0-.775-.722c-4.224-3.781-8.458-5.374-11.001-3.891-2.438 1.423-3.16 5.647-2.134 10.934.102.524.217 1.044.346 1.562-.599.171-1.178.354-1.731.549-4.952 1.741-8.115 4.469-8.115 7.298 0 2.923 3.395 5.854 8.554 7.631a26.56 26.56 0 0 0 1.265.399c-.138.558-.261 1.119-.367 1.683-.978 5.194-.214 9.319 2.217 10.733 2.511 1.46 6.726-.041 10.831-3.657.324-.286.65-.589.976-.907a30.82 30.82 0 0 0 1.264 1.163c3.976 3.449 7.902 4.841 10.332 3.424 2.509-1.464 3.324-5.895 2.266-11.286-.081-.412-.175-.832-.28-1.261.296-.088.586-.179.87-.274 5.363-1.791 8.852-4.687 8.852-7.648 0-2.84-3.265-5.586-8.317-7.339h0z" fill="#53c1de"/><path d="M40.453 29.703l-.786.248c-.592-1.889-1.391-3.898-2.369-5.974.933-2.026 1.701-4.01 2.277-5.887l1.391.442c4.329 1.502 6.969 3.723 6.969 5.435 0 1.823-2.852 4.19-7.482 5.736h0zm-1.921 3.838c.468 2.384.535 4.539.225 6.224-.279 1.514-.839 2.523-1.532 2.927-1.474.86-4.627-.258-8.027-3.207l-1.176-1.081c1.318-1.453 2.635-3.143 3.921-5.019 2.261-.202 4.398-.533 6.336-.984l.253 1.141h0zm-19.429 9.002c-1.44.513-2.587.527-3.281.124-1.476-.858-2.089-4.17-1.252-8.612l.342-1.566c1.916.427 4.037.735 6.304.92 1.294 1.836 2.65 3.523 4.015 5.001l-.891.827c-1.815 1.599-3.634 2.734-5.236 3.305h0zm-6.748-12.851c-2.281-.786-4.165-1.807-5.456-2.922-1.16-1.002-1.746-1.996-1.746-2.803 0-1.717 2.54-3.907 6.775-5.396l1.61-.511c.585 1.919 1.353 3.926 2.28 5.955-.939 2.06-1.717 4.098-2.308 6.04l-1.155-.364h0zm2.262-15.521c-.879-4.529-.295-7.946 1.174-8.803 1.565-.913 5.026.389 8.673 3.654l.702.653a48.2 48.2 0 0 0-3.985 4.971c-2.2.206-4.306.536-6.242.978l-.322-1.453h0zm20.178 5.023l-1.422-2.358 4.265.752a43.18 43.18 0 0 1-1.497 4.061l-1.346-2.454h0zm-8.228-8.079a42.99 42.99 0 0 1 2.753 3.35l-5.529-.001 2.776-3.349h0zm-8.281 8.093l-1.32 2.439-1.486-4.08c1.335-.301 2.758-.547 4.241-.734l-1.434 2.376h0zm1.477 12.038l-4.311-.699a45.39 45.39 0 0 1 1.516-4.163l1.326 2.44 1.469 2.422h0zm6.86 5.716a45.19 45.19 0 0 1-2.814-3.395l2.737.053 2.824-.063-2.746 3.405zm9.538-10.65l1.571 4.148c-1.356.312-2.821.563-4.364.75l1.436-2.4 1.357-2.498h0zm-3.088 1.492l-2.244 3.65-4.284.151c-1.456 0-2.872-.046-4.235-.135l-2.286-3.656-1.996-3.8 1.99-3.802h0l2.268-3.64 4.259-.162 4.267.163 2.254 3.628 2.017 3.784-2.01 3.817h0zm4.122-22.496c1.566.911 2.176 4.583 1.191 9.399l-.21.937c-1.941-.451-4.048-.787-6.254-.996-1.285-1.845-2.617-3.523-3.954-4.975l1.076-.995c3.454-3.03 6.681-4.226 8.152-3.371h0z" fill="#fff"/><path d="M26.545 19.756c2.307 0 4.177 1.885 4.177 4.211s-1.87 4.211-4.177 4.211-4.177-1.885-4.177-4.211 1.87-4.211 4.177-4.211M67.522 31l-2.43-3.51h-.144-2.538V31h-2.916V18.4h5.454c1.116 0 2.082.186 2.898.558.828.372 1.464.9 1.908 1.584s.666 1.494.666 2.43-.228 1.746-.684 2.43c-.444.672-1.08 1.188-1.908 1.548L70.654 31h-3.132zm-.054-8.028c0-.708-.228-1.248-.684-1.62-.456-.384-1.122-.576-1.998-.576H62.41v4.392h2.376c.876 0 1.542-.192 1.998-.576s.684-.924.684-1.62zm14.55 3.222a30.46 30.46 0 0 1-.054.756h-7.326a2.28 2.28 0 0 0 .936 1.422c.492.348 1.104.522 1.836.522.504 0 .948-.072 1.332-.216.396-.156.762-.396 1.098-.72l1.494 1.62c-.912 1.044-2.244 1.566-3.996 1.566-1.092 0-2.058-.21-2.898-.63-.84-.432-1.488-1.026-1.944-1.782s-.684-1.614-.684-2.574c0-.948.222-1.8.666-2.556.456-.768 1.074-1.362 1.854-1.782.792-.432 1.674-.648 2.646-.648.948 0 1.806.204 2.574.612s1.368.996 1.8 1.764c.444.756.666 1.638.666 2.646zm-5.022-2.898c-.636 0-1.17.18-1.602.54s-.696.852-.792 1.476h4.77c-.096-.612-.36-1.098-.792-1.458-.432-.372-.96-.558-1.584-.558zm10.534-2.124c1.5 0 2.652.36 3.456 1.08.804.708 1.206 1.782 1.206 3.222V31h-2.628v-1.206c-.528.9-1.512 1.35-2.952 1.35-.744 0-1.392-.126-1.944-.378-.54-.252-.954-.6-1.242-1.044s-.432-.948-.432-1.512c0-.9.336-1.608 1.008-2.124.684-.516 1.734-.774 3.15-.774h2.232c0-.612-.186-1.08-.558-1.404-.372-.336-.93-.504-1.674-.504a4.81 4.81 0 0 0-1.53.252c-.492.156-.912.372-1.26.648l-1.008-1.962c.528-.372 1.158-.66 1.89-.864.744-.204 1.506-.306 2.286-.306zm-.216 8.082c.48 0 .906-.108 1.278-.324.372-.228.636-.558.792-.99v-.99h-1.926c-1.152 0-1.728.378-1.728 1.134a1.04 1.04 0 0 0 .414.864c.288.204.678.306 1.17.306zm12.205 1.89c-1.032 0-1.962-.21-2.79-.63-.816-.432-1.458-1.026-1.926-1.782-.456-.756-.684-1.614-.684-2.574s.228-1.818.684-2.574a4.8 4.8 0 0 1 1.926-1.764c.828-.432 1.758-.648 2.79-.648 1.02 0 1.908.216 2.664.648.768.42 1.326 1.026 1.674 1.818l-2.178 1.17c-.504-.888-1.23-1.332-2.178-1.332-.732 0-1.338.24-1.818.72s-.72 1.134-.72 1.962.24 1.482.72 1.962 1.086.72 1.818.72c.96 0 1.686-.444 2.178-1.332l2.178 1.188c-.348.768-.906 1.368-1.674 1.8-.756.432-1.644.648-2.664.648zm12.341-.612c-.276.204-.618.36-1.026.468-.396.096-.816.144-1.26.144-1.152 0-2.046-.294-2.682-.882-.624-.588-.936-1.452-.936-2.592v-3.978h-1.494v-2.16h1.494v-2.358h2.808v2.358h2.412v2.16h-2.412v3.942c0 .408.102.726.306.954.216.216.516.324.9.324.444 0 .822-.12 1.134-.36l.756 1.98zm9.194.684c-.852 0-1.638-.156-2.358-.468-.708-.324-1.29-.78-1.746-1.368l1.62-1.944c.684.924 1.464 1.386 2.34 1.386 1.188 0 1.782-.696 1.782-2.088V20.74h-4.428V18.4h7.326v8.172c0 1.548-.384 2.712-1.152 3.492-.768.768-1.896 1.152-3.384 1.152zm11.557 0c-.996 0-1.962-.132-2.898-.396-.924-.276-1.668-.63-2.232-1.062l.99-2.196c.54.396 1.182.714 1.926.954s1.488.36 2.232.36c.828 0 1.44-.12 1.836-.36.396-.252.594-.582.594-.99 0-.3-.12-.546-.36-.738-.228-.204-.528-.366-.9-.486-.36-.12-.852-.252-1.476-.396l-2.358-.684a3.9 3.9 0 0 1-1.584-1.098c-.432-.504-.648-1.176-.648-2.016 0-.732.198-1.392.594-1.98.396-.6.99-1.074 1.782-1.422.804-.348 1.782-.522 2.934-.522.804 0 1.59.096 2.358.288s1.44.468 2.016.828l-.9 2.214c-1.164-.66-2.328-.99-3.492-.99-.816 0-1.422.132-1.818.396-.384.264-.576.612-.576 1.044s.222.756.666.972c.456.204 1.146.408 2.07.612l2.358.684c.612.228 1.134.588 1.566 1.08.444.492.666 1.158.666 1.998 0 .72-.204 1.38-.612 1.98-.396.588-.996 1.056-1.8 1.404s-1.782.522-2.934.522z" fill="#53c1de"/></svg>
